static/favicon.svg

<svg xmlns="http://www.w3.org/2000/svg" viewBox="0 0 50 50"><circle cx="25" cy="25" r="21" fill="#fff"/><path d="M25 2C12.318 2 2 12.317 2 25s10.318 23 23 23 23-10.317 23-23S37.682 2 25 2m0 2c5.514 0 10 4.486 10 10s-4.486 10-10 10c-6.617 0-12 5.383-12 12 0 3.061 1.162 5.849 3.055 7.97C8.943 40.605 4 33.378 4 25 4 13.421 13.42 4 25 4m0 6c-2.206 0-4 1.794-4 4s1.794 4 4 4 4-1.794 4-4-1.794-4-4-4m0 22a4 4 0 1 1 0 8 4 4 0 0 1 0-8"/></svg>

<?xml version="1.0"?><svg xmlns="http://www.w3.org/2000/svg" viewBox="0 0 50 50">    <path d="M 25 2 C 12.318 2 2 12.317 2 25 C 2 37.683 12.318 48 25 48 C 37.682 48 48 37.683 48 25 C 48 12.317 37.682 2 25 2 z M 25 4 C 30.514 4 35 8.486 35 14 C 35 19.514 30.514 24 25 24 C 18.383 24 13 29.383 13 36 C 13 39.061 14.161687 41.848703 16.054688 43.970703 C 8.9426875 40.603703 4 33.377 4 25 C 4 13.421 13.42 4 25 4 z M 25 10 C 22.794 10 21 11.794 21 14 C 21 16.206 22.794 18 25 18 C 27.206 18 29 16.206 29 14 C 29 11.794 27.206 10 25 10 z M 25 32 C 27.209 32 29 33.791 29 36 C 29 38.209 27.209 40 25 40 C 22.791 40 21 38.209 21 36 C 21 33.791 22.791 32 25 32 z"/></svg>
